X: 9325
T: Dancin' With My Sweetie
R: barndance
M: 4/4
K: Dmajor
f>dA>d f2 f2|e>^de>g B2 B2|c>=c^c>B A>ce>c|d>cd<f A>a^g>=g|
[1 f>dA>d f2 f2|e>^de>g B>e^d>=d|c>=c^c>B A>gf>e|d2:|
[2 f>dA>d f>Aa>f|g>ec>e b2 ^a>b|(3aba c'>b (3aba (3gfe|d2||

